client/public/img/game/winter/obstacles/grenade_box_winter_2.svg

<?xml version="1.0" encoding="UTF-8" standalone="no"?>
<!-- Created with Inkscape (http://www.inkscape.org/) -->

<svg
   width="91.796532"
   height="91.796524"
   viewBox="0 0 24.287833 24.28783"
   version="1.1"
   id="svg1"
   xml:space="preserve"
   xmlns="http://www.w3.org/2000/svg"
   xmlns:svg="http://www.w3.org/2000/svg">
  
  <defs
   id="defs1" />
  
  
  
  
  
  
  
  
  <rect
   ry="0"
   rx="0"
   y="0.69453782"
   x="0.6945343"
   height="22.898762"
   width="22.898762"
   id="rect1527"
   style="fill:#af7a53;fill-opacity:1;fill-rule:nonzero;stroke:none;stroke-width:1.38907;stroke-linecap:round;stroke-linejoin:round;stroke-miterlimit:4;stroke-dasharray:none;stroke-dashoffset:0;stroke-opacity:1;paint-order:normal" /><path
   id="path1562-0-2"
   d="M 4.4454739,0.76635207 V 23.400537"
   style="fill:none;stroke:#342318;stroke-width:1.38102;stroke-linecap:round;stroke-linejoin:round;stroke-miterlimit:4;stroke-dasharray:none;stroke-opacity:1;paint-order:normal" /><rect
   ry="0"
   rx="0"
   y="0.69453782"
   x="0.6945343"
   height="22.898762"
   width="22.898762"
   id="rect9"
   style="fill:none;fill-opacity:1;fill-rule:nonzero;stroke:#342318;stroke-width:1.389;stroke-linecap:round;stroke-linejoin:round;stroke-miterlimit:4;stroke-dasharray:none;stroke-dashoffset:0;stroke-opacity:1;paint-order:normal" /><path
   id="path9"
   d="M 19.678396,0.91134974 V 23.567582"
   style="fill:none;stroke:#342318;stroke-width:1.38169;stroke-linecap:round;stroke-linejoin:round;stroke-miterlimit:4;stroke-dasharray:none;stroke-opacity:1;paint-order:normal" /><path
   id="path10"
   d="M 5.1105744,4.498 H 19.261961"
   style="fill:none;stroke:#342318;stroke-width:1.382;stroke-linecap:round;stroke-linejoin:round;stroke-miterlimit:4;stroke-dasharray:none;stroke-opacity:1;paint-order:normal" /><path
   id="path11"
   d="M 5.0862807,19.732 H 19.193946"
   style="fill:none;stroke:#342318;stroke-width:1.382;stroke-linecap:round;stroke-linejoin:round;stroke-miterlimit:4;stroke-dasharray:none;stroke-opacity:1;paint-order:normal" /><g
   id="g8"
   transform="translate(0.2881587,0.3825353)">
    <rect
   style="fill:#e2cec0;fill-opacity:1;fill-rule:evenodd;stroke:none;stroke-width:0;stroke-linecap:round;stroke-linejoin:round;stroke-dasharray:none;stroke-opacity:1"
   id="rect23"
   width="1.555177"
   height="0.63536268"
   x="3.8237"
   y="15.001119"
   transform="matrix(0.86685555,-0.49855937,0.50144201,0.86519126,0,0)" />
    <path
   style="fill:#e2cec0;fill-opacity:1;fill-rule:evenodd;stroke:none;stroke-width:0;stroke-linecap:round;stroke-linejoin:round;stroke-dasharray:none;stroke-opacity:1"
   d="M 10.728756,10.773944 10.223882,11.064312 9.8116494,12.128666 10.35449,14.81512 9.4957479,14.95597 8.8290082,11.777759 9.684506,10.021598 9.5900695,9.3288598 10.852255,8.6029325 11.523524,9.2109694 v 0.2408302 l 0.481647,0.5602274 z"
   id="path23" />
    <ellipse
   style="fill:#e2cec0;fill-opacity:1;fill-rule:evenodd;stroke:none;stroke-width:0;stroke-linecap:round;stroke-linejoin:round;stroke-dasharray:none;stroke-opacity:1"
   id="circle23"
   cx="4.6666145"
   cy="17.817051"
   transform="matrix(0.86685555,-0.49855937,0.50144201,0.86519126,0,0)"
   rx="2.4937539"
   ry="2.4889669" />
    <path
   style="fill:none;fill-opacity:0.697324;fill-rule:evenodd;stroke:#af7a53;stroke-width:0.318391;stroke-linecap:round;stroke-linejoin:round;stroke-dasharray:none;stroke-opacity:1"
   d="m 10.833045,14.338378 4.293798,-2.469516"
   id="path24" />
    <ellipse
   style="fill:none;fill-opacity:1;fill-rule:evenodd;stroke:#e2cec0;stroke-width:0.53636;stroke-linecap:round;stroke-linejoin:round;stroke-dasharray:none;stroke-opacity:1"
   id="circle24"
   cx="2.7750192"
   cy="14.506399"
   transform="matrix(0.86685555,-0.49855937,0.50144201,0.86519126,0,0)"
   rx="1.1755668"
   ry="1.17331" />
    <ellipse
   style="fill:#e2cec0;fill-opacity:1;fill-rule:evenodd;stroke:none;stroke-width:0;stroke-linecap:round;stroke-linejoin:round;stroke-dasharray:none;stroke-opacity:1"
   id="circle25"
   cx="5.5876837"
   cy="13.145464"
   transform="matrix(0.86685555,-0.49855937,0.50144201,0.86519126,0,0)"
   rx="0.64209259"
   ry="0.64085972" />
  </g><g
   id="rect1533"><path
     style="fill:#342418;stroke-linecap:round;stroke-linejoin:round;paint-order:stroke fill markers"
     d="m 20.78125,3.1933594 -6.113281,2.1230468 a 1.0418992,1.0418992 0 0 0 -0.404297,1.7128907 l 0.326172,0.3320312 -0.04687,0.4804688 a 1.0418992,1.0418992 0 0 0 1.378906,1.0859375 L 22.035156,6.8046875 A 1.0418992,1.0418992 0 0 0 22.523437,5.1914062 L 22.171875,4.7304687 22.164062,4.1640625 A 1.0418992,1.0418992 0 0 0 20.78125,3.1933594 Z"
     id="path1" /><path
     style="fill:#e2cec0;stroke-linecap:round;stroke-linejoin:round;paint-order:stroke fill markers"
     d="m 15.008946,6.300231 6.113981,-2.1222844 0.01209,0.9093772 0.558397,0.7341124 -6.11398,2.1222842 0.09455,-0.9644321 z"
     id="path2" /></g><path
   style="fill:#e2cec0;fill-opacity:1;fill-rule:nonzero;stroke:#342418;stroke-width:2.08359;stroke-linecap:round;stroke-linejoin:round;stroke-miterlimit:4;stroke-dasharray:none;stroke-dashoffset:0;stroke-opacity:1;paint-order:stroke fill markers"
   d="m 3.2832369,16.446644 5.7708854,2.929445 -0.646382,0.639766 -0.141,0.911492 -5.7708998,-2.929445 0.7600213,-0.601186 z"
   id="path1538" />
<path
   style="fill:#c9d1d9;stroke:#a2a5c0;stroke-width:1.389;stroke-linecap:round;stroke-linejoin:round"
   d="M 22.863557,13.400393 C 22.724605,11.279457 22.893419,8.1806163 21.274851,6.5620481 19.470749,4.7579467 17.621346,4.2281326 15.265396,3.2464869 13.378924,2.4604567 8.287009,-0.95378163 7.667235,3.3846354 7.5602838,4.1332941 7.4668377,5.4429366 7.943532,6.0785287 c 1.1678785,1.5571716 2.900146,1.8224623 4.835193,2.3485223 6.563432,1.784328 1.635632,7.768894 4.835193,9.048719 2.55453,1.021812 5.532553,-1.529152 5.249639,-4.075377 z"
   id="path3" /><path
   style="fill:#c9d1d9;stroke:#a2a5c0;stroke-width:1.389;stroke-linecap:round;stroke-linejoin:round"
   d="M 0.69453428,16.715954 V 23.5933 H 13.967236 C 14.677574,20.461681 12.170876,19.48814 11.190019,17.199473 9.7714572,13.889496 10.49159,11.753692 7.1146416,9.8776092 6.3905668,9.4753454 5.5559216,8.9696493 4.697045,9.2559415 2.32528,10.04653 0.87622519,12.582599 0.69453428,16.715954 Z"
   id="path4" /></svg>

<svg xmlns="http://www.w3.org/2000/svg" xml:space="preserve" width="91.797" height="91.797" viewBox="0 0 24.288 24.288"><rect width="22.899" height="22.899" x=".695" y=".695" rx="0" ry="0" style="fill:#af7a53;fill-opacity:1;fill-rule:nonzero;stroke:none;stroke-width:1.38907;stroke-linecap:round;stroke-linejoin:round;stroke-miterlimit:4;stroke-dasharray:none;stroke-dashoffset:0;stroke-opacity:1;paint-order:normal"/><path d="M4.445.766v22.635" style="fill:none;stroke:#342318;stroke-width:1.38102;stroke-linecap:round;stroke-linejoin:round;stroke-miterlimit:4;stroke-dasharray:none;stroke-opacity:1;paint-order:normal"/><rect width="22.899" height="22.899" x=".695" y=".695" rx="0" ry="0" style="fill:none;fill-opacity:1;fill-rule:nonzero;stroke:#342318;stroke-width:1.389;stroke-linecap:round;stroke-linejoin:round;stroke-miterlimit:4;stroke-dasharray:none;stroke-dashoffset:0;stroke-opacity:1;paint-order:normal"/><path d="M19.678.911v22.657" style="fill:none;stroke:#342318;stroke-width:1.38169;stroke-linecap:round;stroke-linejoin:round;stroke-miterlimit:4;stroke-dasharray:none;stroke-opacity:1;paint-order:normal"/><path d="M5.11 4.498h14.152M5.086 19.732h14.108" style="fill:none;stroke:#342318;stroke-width:1.382;stroke-linecap:round;stroke-linejoin:round;stroke-miterlimit:4;stroke-dasharray:none;stroke-opacity:1;paint-order:normal"/><g transform="translate(.288 .383)"><path d="M3.824 15.001h1.555v.635H3.824z" style="fill:#e2cec0;fill-opacity:1;fill-rule:evenodd;stroke:none;stroke-width:0;stroke-linecap:round;stroke-linejoin:round;stroke-dasharray:none;stroke-opacity:1" transform="matrix(.86686 -.49856 .50144 .8652 0 0)"/><path d="m10.729 10.774-.505.29-.412 1.065.542 2.686-.858.141-.667-3.178.856-1.756-.095-.693 1.262-.726.672.608v.24l.481.561z" style="fill:#e2cec0;fill-opacity:1;fill-rule:evenodd;stroke:none;stroke-width:0;stroke-linecap:round;stroke-linejoin:round;stroke-dasharray:none;stroke-opacity:1"/><ellipse cx="4.667" cy="17.817" rx="2.494" ry="2.489" style="fill:#e2cec0;fill-opacity:1;fill-rule:evenodd;stroke:none;stroke-width:0;stroke-linecap:round;stroke-linejoin:round;stroke-dasharray:none;stroke-opacity:1" transform="matrix(.86686 -.49856 .50144 .8652 0 0)"/><path d="m10.833 14.338 4.294-2.47" style="fill:none;fill-opacity:.697324;fill-rule:evenodd;stroke:#af7a53;stroke-width:.318391;stroke-linecap:round;stroke-linejoin:round;stroke-dasharray:none;stroke-opacity:1"/><ellipse cx="2.775" cy="14.506" rx="1.176" ry="1.173" style="fill:none;fill-opacity:1;fill-rule:evenodd;stroke:#e2cec0;stroke-width:.53636;stroke-linecap:round;stroke-linejoin:round;stroke-dasharray:none;stroke-opacity:1" transform="matrix(.86686 -.49856 .50144 .8652 0 0)"/><ellipse cx="5.588" cy="13.145" rx=".642" ry=".641" style="fill:#e2cec0;fill-opacity:1;fill-rule:evenodd;stroke:none;stroke-width:0;stroke-linecap:round;stroke-linejoin:round;stroke-dasharray:none;stroke-opacity:1" transform="matrix(.86686 -.49856 .50144 .8652 0 0)"/></g><path d="m20.781 3.193-6.113 2.123a1.042 1.042 0 0 0-.404 1.713l.326.332-.047.48a1.042 1.042 0 0 0 1.379 1.087l6.113-2.123a1.042 1.042 0 0 0 .488-1.614l-.351-.46-.008-.567a1.042 1.042 0 0 0-1.383-.97" style="fill:#342418;stroke-linecap:round;stroke-linejoin:round;paint-order:stroke fill markers"/><path d="m15.009 6.3 6.114-2.122.012.91.558.733-6.114 2.123.095-.965z" style="fill:#e2cec0;stroke-linecap:round;stroke-linejoin:round;paint-order:stroke fill markers"/><path d="m3.283 16.447 5.771 2.93-.646.639-.141.911-5.771-2.93.76-.6z" style="fill:#e2cec0;fill-opacity:1;fill-rule:nonzero;stroke:#342418;stroke-width:2.08359;stroke-linecap:round;stroke-linejoin:round;stroke-miterlimit:4;stroke-dasharray:none;stroke-dashoffset:0;stroke-opacity:1;paint-order:stroke fill markers"/><path d="M22.864 13.4c-.14-2.12.03-5.22-1.59-6.838-1.803-1.804-3.653-2.334-6.009-3.316-1.886-.786-6.978-4.2-7.598.139-.107.748-.2 2.058.277 2.694 1.167 1.557 2.9 1.822 4.835 2.348 6.563 1.784 1.635 7.769 4.835 9.049 2.554 1.022 5.532-1.53 5.25-4.076M.695 16.716v6.877h13.272c.71-3.131-1.796-4.105-2.777-6.394-1.419-3.31-.698-5.445-4.075-7.321-.724-.403-1.56-.908-2.418-.622-2.372.79-3.82 3.327-4.002 7.46" style="fill:#c9d1d9;stroke:#a2a5c0;stroke-width:1.389;stroke-linecap:round;stroke-linejoin:round"/></svg>
